svg/device/base_station_2_fill.svg

<?xml version="1.0" encoding="UTF-8"?>
<svg width="24px" height="24px" viewBox="0 0 24 24" version="1.1" xmlns="http://www.w3.org/2000/svg" xmlns:xlink="http://www.w3.org/1999/xlink">
    <title>base_station_2_fill</title>
    <g id="Icon" stroke="none" stroke-width="1" fill="none" fill-rule="evenodd">
        <g id="Device" transform="translate(-144.000000, -336.000000)" fill-rule="nonzero">
            <g id="base_station_2_fill" transform="translate(144.000000, 336.000000)">
                <path d="M24,0 L24,24 L0,24 L0,0 L24,0 Z M12.5935,23.2578 L12.5819,23.2595 L12.5109,23.295 L12.4919,23.2987 L12.4767,23.295 L12.4057,23.2595 C12.3958,23.2564 12.387,23.259 12.3821,23.2649 L12.378,23.2758 L12.3609,23.7031 L12.3659,23.7235 L12.3769,23.7357 L12.4805,23.8097 L12.4953,23.8136 L12.5071,23.8097 L12.6107,23.7357 L12.6233,23.7197 L12.6267,23.7031 L12.6096,23.2758 C12.6076,23.2657 12.601,23.2593 12.5935,23.2578 Z M12.8584,23.1453 L12.8445,23.1473 L12.6598,23.2397 L12.6499,23.2499 L12.6472,23.2611 L12.6651,23.6906 L12.6699,23.7034 L12.6784,23.7105 L12.8793,23.8032 C12.8914,23.8069 12.9022,23.803 12.9078,23.7952 L12.9118,23.7812 L12.8777,23.1665 C12.8753,23.1546 12.8674,23.147 12.8584,23.1453 Z M12.143,23.1473 C12.1332,23.1424 12.1222,23.1453 12.1156,23.1526 L12.1099,23.1665 L12.0758,23.7812 C12.0751,23.7927 12.0828,23.8019 12.0926,23.8046 L12.1083,23.8032 L12.3092,23.7105 L12.3186,23.7024 L12.3225,23.6906 L12.3404,23.2611 L12.3372,23.2485 L12.3278,23.2397 L12.143,23.1473 Z" id="MingCute"></path>
                <path d="M12,8.5 C12.8284,8.5 13.5,9.17157 13.5,10 C13.5,10.1732 13.4707,10.3395 13.4167,10.4942 L17.3707,19.3908 C17.7072,20.1478 17.3662,21.0343 16.6092,21.3707 C15.8522,21.7072 14.9657,21.3662 14.6293,20.6092 L14.1363,19.5 L9.8637,19.5 L9.37072,20.6092 C9.03426,21.3662 8.14782,21.7072 7.39079,21.3707 C6.63377,21.0343 6.29283,20.1478 6.62928,19.3908 L10.5833,10.4942 C10.5293,10.3395 10.5,10.1732 10.5,10 C10.5,9.17157 11.1716,8.5 12,8.5 Z M12,14.6933 L11.197,16.5 L12.803,16.5 L12,14.6933 Z M7.40381,3.28248 C7.98959,3.86827 7.98959,4.81801 7.40381,5.4038 C7.00288,5.80472 6.6543,6.25741 6.36898,6.75055 C5.81662,7.7052 5.5,8.81335 5.5,9.99999 C5.5,11.1866 5.81662,12.2948 6.36898,13.2495 C6.78387,13.9665 6.53891,14.8841 5.82186,15.299 C5.10481,15.7139 4.18719,15.4689 3.77231,14.7519 C2.96283,13.3528 2.5,11.7282 2.5,9.99999 C2.5,8.2718 2.96283,6.64715 3.7723,5.24812 C4.18939,4.52726 4.69816,3.8668 5.28249,3.28248 C5.86827,2.69669 6.81802,2.69669 7.40381,3.28248 Z M18.7175,3.28248 C19.3018,3.8668 19.8106,4.52726 20.2277,5.24812 C21.0372,6.64715 21.5,8.2718 21.5,9.99999 C21.5,11.7282 21.0372,13.3528 20.2277,14.7519 C19.8128,15.4689 18.8952,15.7139 18.1781,15.299 C17.4611,14.8841 17.2161,13.9665 17.631,13.2495 C18.1834,12.2948 18.5,11.1866 18.5,9.99999 C18.5,8.81335 18.1834,7.7052 17.631,6.75055 C17.3457,6.25741 16.9971,5.80472 16.5962,5.4038 C16.0104,4.81801 16.0104,3.86827 16.5962,3.28248 C17.182,2.69669 18.1317,2.69669 18.7175,3.28248 Z M10.2322,6.11091 C10.7813875,6.66007875 10.8157117,7.52914301 10.3351727,8.11830694 L10.2322,8.23223 C10.0776,8.38684 9.94338,8.56124 9.83366,8.75088 C9.62175,9.11711 9.5,9.54206 9.5,9.99999 C9.5,10.1453967 9.51225778,10.2869767 9.53556741,10.4240219 L9.57867,10.6261 C9.78517,11.4284 9.30219,12.2462 8.49991,12.4527 C7.69763,12.6591 6.87986,12.1762 6.67336,11.3739 C6.55993,10.9332 6.5,10.4725 6.5,9.99999 C6.5,9.00051 6.76797,8.05906 7.23698,7.24845 C7.47847,6.83109 7.7729,6.44892 8.11091,6.11091 C8.6967,5.52512 9.64645,5.52512 10.2322,6.11091 Z M15.8891,6.11091 C16.2271,6.44892 16.5215,6.83109 16.763,7.24845 C17.232,8.05906 17.5,9.00051 17.5,9.99999 C17.5,10.4725 17.4401,10.9332 17.3266,11.3739 C17.1201,12.1762 16.3024,12.6591 15.5001,12.4527 C14.7449941,12.2583471 14.2727284,11.5224965 14.3919409,10.7677157 L14.4213,10.6261 C14.4724,10.4276 14.5,10.2181 14.5,9.99999 C14.5,9.54206 14.3782,9.11711 14.1663,8.75088 C14.0931667,8.62445333 14.0091444,8.5048 13.9154481,8.39326815 L13.7678,8.23223 C13.182,7.64644 13.182,6.69669 13.7678,6.11091 C14.3536,5.52512 15.3033,5.52512 15.8891,6.11091 Z" id="形状" fill="#09244B"></path>
            </g>
        </g>
    </g>
</svg>

<svg xmlns="http://www.w3.org/2000/svg" width="24" height="24"><g fill="none" fill-rule="nonzero"><path d="M24 0v24H0V0h24ZM12.594 23.258l-.012.002-.071.035-.02.004-.014-.004-.071-.036c-.01-.003-.019 0-.024.006l-.004.01-.017.428.005.02.01.013.104.074.015.004.012-.004.104-.074.012-.016.004-.017-.017-.427c-.002-.01-.009-.017-.016-.018Zm.264-.113-.014.002-.184.093-.01.01-.003.011.018.43.005.012.008.008.201.092c.012.004.023 0 .029-.008l.004-.014-.034-.614c-.003-.012-.01-.02-.02-.022Zm-.715.002a.023.023 0 0 0-.027.006l-.006.014-.034.614c0 .012.007.02.017.024l.015-.002.201-.093.01-.008.003-.011.018-.43-.003-.012-.01-.01-.184-.092Z"/><path fill="#09244B" d="M12 8.5a1.5 1.5 0 0 1 1.417 1.994l3.954 8.897a1.5 1.5 0 1 1-2.742 1.218l-.493-1.109H9.864l-.493 1.11a1.5 1.5 0 0 1-2.742-1.22l3.954-8.896A1.5 1.5 0 0 1 12 8.5Zm0 6.193-.803 1.807h1.606L12 14.693ZM7.404 3.283a1.5 1.5 0 0 1 0 2.12c-.401.402-.75.854-1.035 1.348A6.463 6.463 0 0 0 5.5 10c0 1.187.317 2.295.869 3.25a1.5 1.5 0 1 1-2.597 1.502A9.463 9.463 0 0 1 2.5 10a9.463 9.463 0 0 1 2.782-6.718 1.5 1.5 0 0 1 2.122 0Zm11.314 0A9.463 9.463 0 0 1 21.5 10a9.463 9.463 0 0 1-1.272 4.75 1.5 1.5 0 0 1-2.597-1.501A6.463 6.463 0 0 0 18.5 10a6.463 6.463 0 0 0-1.904-4.596 1.5 1.5 0 1 1 2.122-2.122ZM10.232 6.11a1.5 1.5 0 0 1 .103 2.007l-.103.114a2.482 2.482 0 0 0-.697 2.192l.044.202a1.5 1.5 0 1 1-2.906.748A5.507 5.507 0 0 1 8.111 6.11a1.5 1.5 0 0 1 2.121 0Zm5.657 0A5.482 5.482 0 0 1 17.5 10c.001.471-.059.932-.172 1.373a1.5 1.5 0 0 1-2.935-.606l.03-.142a2.507 2.507 0 0 0-.507-2.233l-.147-.16a1.5 1.5 0 1 1 2.121-2.122Z"/></g></svg>
